X:3
T:The Abbey Reel
R:reel
S:Clare FM
D:i.The Border Collies- Unleashed,ii.Mike Rafferty iii.Paddy in the Smoke
Z:arranged psc -  http://www.cranfordpub.com
L:1/8
Q:333
M:C|
K:Ador
B|A3 B A2 GE|A2 GA BddB|AGAB AGED|GFGA Bdd:|
||g|eg ~g2 a2 ba|gabg aged|eg ~g2 a2 ga|bgef gedg|
eg ~g2 agbg|agbg ageg|degb a2 ga|bgeg ({g}g)ed|]
